src/dsmComponents/Icons/check-in-16px.svg

<svg width="14" height="16" xmlns="http://www.w3.org/2000/svg" xmlns:xlink="http://www.w3.org/1999/xlink"><defs><path d="M5 0v2h4V0h2v2h2a1 1 0 011 1v2h-2V4H2v10h10v-1h2v2a1 1 0 01-1 1H1a1 1 0 01-1-1V3a1 1 0 011-1h2V0h2zm4 5l5 4-5 4v-3H4V8h5V5z" id="check-in-16px_svg__a"/></defs><use fill="#737373" xlink:href="#check-in-16px_svg__a" fill-rule="evenodd"/></svg>

<?xml version="1.0" encoding="UTF-8"?>
<svg width="14px" height="16px" viewBox="0 0 14 16" version="1.1" xmlns="http://www.w3.org/2000/svg" xmlns:xlink="http://www.w3.org/1999/xlink">
    <!-- Generator: Sketch 59.1 (86144) - https://sketch.com -->
    <title>check-in-16px</title>
    <desc>Created with Sketch.</desc>
    <defs>
        <path d="M5,0 L5,2 L9,2 L9,0 L11,0 L11,2 L13,2 C13.553,2 14,2.448 14,3 L14,3 L14,5 L12,5 L12,4 L2,4 L2,14 L12,14 L12,13 L14,13 L14,15 C14,15.552 13.553,16 13,16 L13,16 L1,16 C0.447,16 0,15.552 0,15 L0,15 L0,3 C0,2.448 0.447,2 1,2 L1,2 L3,2 L3,0 L5,0 Z M9,5 L14,9 L9,13 L9,10 L4,10 L4,8 L9,8 L9,5 Z" id="path-1"></path>
    </defs>
    <g id="Final" stroke="none" stroke-width="1" fill="none" fill-rule="evenodd">
        <g id="All-Nucleo-Icons" transform="translate(-320.000000, -1180.000000)">
            <g id="Solo/Nucleo/16px/check-in" transform="translate(315.000000, 1176.000000)">
                <g id="check-in" transform="translate(5.000000, 4.000000)">
                    <g id="Colour/Default-Colour">
                        <mask id="mask-2" fill="white">
                            <use xlink:href="#path-1"></use>
                        </mask>
                        <g id="Mask" fill-rule="nonzero"></g>
                        <g id="colour/neutral/chia" mask="url(#mask-2)" fill="#737373">
                            <g transform="translate(-25.000000, -24.000000)" id="Colour">
                                <rect x="0" y="0" width="64" height="64"></rect>
                            </g>
                        </g>
                    </g>
                </g>
            </g>
        </g>
    </g>
</svg>
